build/category/WorkSolid.svg

<svg xmlns="http://www.w3.org/2000/svg" fill="none" viewBox="0 0 24 24" focusable="false"><path d="M0 0H24V24H0z"/><path fill="#74767B" fill-rule="evenodd" d="M8.34987 5.66563C8.34987 4.20207 9.53631 3.01562 10.9999 3.01562L12.9999 3.01562C14.4634 3.01562 15.6499 4.20207 15.6499 5.66563C15.6499 6.02461 15.3589 6.31563 14.9999 6.31563C14.6409 6.31563 14.3499 6.02461 14.3499 5.66563C14.3499 4.92004 13.7455 4.31563 12.9999 4.31563L10.9999 4.31563C10.2543 4.31563 9.64987 4.92004 9.64987 5.66563C9.64987 6.02461 9.35885 6.31563 8.99987 6.31563C8.64088 6.31563 8.34987 6.02461 8.34987 5.66563ZM2.99512 10.4668C2.99512 8.80684 4.33512 7.46684 5.99512 7.46684L17.9991 7.46683C19.6491 7.46683 20.9991 8.80683 20.9991 10.4668L20.9988 12.037C20.9988 12.5697 20.782 13.0794 20.3984 13.4489C20.0331 13.8006 19.5458 13.9971 19.0388 13.9971L4.96808 13.9971C4.45725 13.9971 3.96632 13.799 3.59853 13.4445C3.22326 13.0828 3.00676 12.5877 2.99512 12.0678L2.99512 10.4668ZM20.9991 16.3033C20.9991 15.726 20.2523 15.2679 19.6754 15.2911C19.5056 15.298 19.3323 15.2976 19.1574 15.2972L19.0388 15.2971L16.6499 15.2971L16.6499 16.9077C16.6499 17.2667 16.3589 17.5577 15.9999 17.5577C15.6409 17.5577 15.3499 17.2667 15.3499 16.9077L15.3499 15.2971L8.64987 15.2971L8.64987 16.9093C8.64987 17.2683 8.35885 17.5593 7.99987 17.5593C7.64088 17.5593 7.34987 17.2683 7.34987 16.9093L7.34987 15.2971L4.96808 15.2971L4.85854 15.2972C4.67674 15.2975 4.49682 15.2978 4.32048 15.2902C3.74308 15.2654 2.99512 15.7224 2.99512 16.3003L2.99512 16.9989C2.99512 18.6589 4.33512 19.9989 5.99512 19.9989L17.9991 19.9989C19.6591 19.9989 20.9991 18.6589 20.9991 16.9989L20.9991 16.3033Z"/></svg>

<svg xmlns="http://www.w3.org/2000/svg" fill="none" viewBox="0 0 24 24" focusable="false"><path fill="#74767B" fill-rule="evenodd" d="M11 3.01c-1.47 0-2.65 1.19-2.65 2.65 0 .36.29.65.65.65.35 0 .64-.29.64-.65 0-.74.61-1.35 1.36-1.35h2c.74 0 1.35.61 1.35 1.35 0 .36.29.65.65.65.35 0 .64-.29.64-.65 0-1.46-1.18-2.65-2.64-2.65zm-8.01 7.45c0-1.66 1.34-3 3-3h12c1.65 0 3 1.34 3 3v1.57c0 .53-.21 1.04-.6 1.41-.36.36-.85.55-1.36.55H4.96c-.51 0-1-.2-1.37-.55a2 2 0 0 1-.6-1.38zm18 5.84c0-.58-.74-1.04-1.32-1.01h-3.03v1.61c0 .36-.29.65-.64.65-.36 0-.65-.29-.65-.65v-1.61H8.64v1.61c0 .36-.29.65-.64.65-.36 0-.65-.29-.65-.65v-1.61H4.32c-.58-.03-1.33.43-1.33 1.01v.69c0 1.66 1.34 3 3 3h12c1.66 0 3-1.34 3-3z"/></svg>
